Numix/16/status/indicator-keyboard-In-1.svg

<?xml version="1.0" encoding="UTF-8" standalone="no"?>
<svg
   xmlns:dc="http://purl.org/dc/elements/1.1/"
   xmlns:cc="http://creativecommons.org/ns#"
   xmlns:rdf="http://www.w3.org/1999/02/22-rdf-syntax-ns#"
   xmlns:svg="http://www.w3.org/2000/svg"
   xmlns="http://www.w3.org/2000/svg"
   xmlns:sodipodi="http://sodipodi.sourceforge.net/DTD/sodipodi-0.dtd"
   xmlns:inkscape="http://www.inkscape.org/namespaces/inkscape"
   viewBox="0 0 16 16"
   id="svg2"
   version="1.1"
   inkscape:version="0.91 r13725"
   sodipodi:docname="indicator-keyboard-In-1.svg">
  <metadata
     id="metadata14">
    <rdf:RDF>
      <cc:Work
         rdf:about="">
        <dc:format>image/svg+xml</dc:format>
        <dc:type
           rdf:resource="http://purl.org/dc/dcmitype/StillImage" />
      </cc:Work>
    </rdf:RDF>
  </metadata>
  <defs
     id="defs12" />
  <sodipodi:namedview
     pagecolor="#ffffff"
     bordercolor="#666666"
     borderopacity="1"
     objecttolerance="10"
     gridtolerance="10"
     guidetolerance="10"
     inkscape:pageopacity="0"
     inkscape:pageshadow="2"
     inkscape:window-width="640"
     inkscape:window-height="480"
     id="namedview10"
     showgrid="false"
     inkscape:zoom="14.75"
     inkscape:cx="8"
     inkscape:cy="8"
     inkscape:window-x="65"
     inkscape:window-y="24"
     inkscape:window-maximized="0"
     inkscape:current-layer="svg2" />
  <path
     style="fill:#ececec;fill-opacity:1"
     d="M 1.5996094 0 C 0.71320937 2.9605947e-16 0 0.71320937 0 1.5996094 L 0 14.400391 C 2.9605947e-16 15.286791 0.71320937 16 1.5996094 16 L 14.400391 16 C 15.286791 16 16 15.286791 16 14.400391 L 16 1.5996094 C 16 0.71320937 15.286791 0 14.400391 0 L 1.5996094 0 z M 3.6992188 4.859375 L 4.3105469 4.859375 L 4.3105469 11.095703 L 3.6992188 11.095703 L 3.6992188 4.859375 z M 7.6777344 6.3535156 C 8.0317344 6.3535156 8.3245938 6.4038594 8.5585938 6.5058594 C 8.7985938 6.6078594 8.9889531 6.7552656 9.1269531 6.9472656 C 9.2709531 7.1332656 9.3716406 7.3570937 9.4316406 7.6210938 C 9.4916406 7.8850937 9.5214844 8.1761406 9.5214844 8.4941406 L 9.5214844 11.095703 L 8.9375 11.095703 L 8.9375 8.6835938 C 8.9375 8.3535938 8.9132344 8.0756562 8.8652344 7.8476562 C 8.8232344 7.6196563 8.748625 7.4330625 8.640625 7.2890625 C 8.538625 7.1450625 8.4005625 7.0424219 8.2265625 6.9824219 C 8.0585625 6.9164219 7.8458906 6.8847656 7.5878906 6.8847656 C 7.3118906 6.8847656 7.0711875 6.8996875 6.8671875 6.9296875 C 6.6691875 6.9596875 6.5404687 6.9857656 6.4804688 7.0097656 L 6.4804688 11.095703 L 5.8945312 11.095703 L 5.8945312 6.6054688 C 6.0685312 6.5574688 6.3036563 6.5033594 6.5976562 6.4433594 C 6.8916562 6.3833594 7.2517344 6.3535156 7.6777344 6.3535156 z M 12.033203 8.8417969 L 12.300781 8.8417969 L 12.300781 12.896484 L 11.921875 12.896484 L 11.921875 9.421875 C 11.878975 9.468675 11.822153 9.5157063 11.751953 9.5664062 C 11.685653 9.6171062 11.609237 9.66805 11.523438 9.71875 C 11.437637 9.76555 11.347506 9.812575 11.253906 9.859375 C 11.160306 9.902275 11.066256 9.9375437 10.972656 9.9648438 L 10.861328 9.671875 C 11.095328 9.5899751 11.304981 9.4880812 11.488281 9.3632812 C 11.671581 9.2345813 11.853803 9.0601969 12.033203 8.8417969 z "
     id="path4" />
</svg>

<svg xmlns="http://www.w3.org/2000/svg" viewBox="0 0 16 16">
 <path d="m 1.6 0 c -0.886 0 -1.6 0.713 -1.6 1.6 l 0 12.801 c 0 0.886 0.713 1.6 1.6 1.6 l 12.801 0 c 0.886 0 1.6 -0.713 1.6 -1.6 l 0 -12.801 c 0 -0.886 -0.713 -1.6 -1.6 -1.6 l -12.801 0 z m 2.1 4.859 l 0.611 0 l 0 6.236 l -0.611 0 l 0 -6.236 z m 3.979 1.494 c 0.354 0 0.647 0.05 0.881 0.152 c 0.24 0.102 0.43 0.249 0.568 0.441 c 0.144 0.186 0.245 0.41 0.305 0.674 c 0.06 0.264 0.09 0.555 0.09 0.873 l 0 2.602 l -0.584 0 l 0 -2.412 c 0 -0.33 -0.024 -0.608 -0.072 -0.836 c -0.042 -0.228 -0.117 -0.415 -0.225 -0.559 c -0.102 -0.144 -0.24 -0.247 -0.414 -0.307 c -0.168 -0.066 -0.381 -0.098 -0.639 -0.098 c -0.276 0 -0.517 0.015 -0.721 0.045 c -0.198 0.03 -0.327 0.056 -0.387 0.08 l 0 4.086 l -0.586 0 l 0 -4.49 c 0.174 -0.048 0.409 -0.102 0.703 -0.162 c 0.294 -0.06 0.654 -0.09 1.08 -0.09 z m 4.355 2.488 l 0.268 0 l 0 4.055 l -0.379 0 l 0 -3.475 c -0.043 0.047 -0.1 0.094 -0.17 0.145 c -0.066 0.051 -0.143 0.102 -0.229 0.152 c -0.086 0.047 -0.176 0.094 -0.27 0.141 c -0.094 0.043 -0.188 0.078 -0.281 0.105 l -0.111 -0.293 c 0.234 -0.082 0.444 -0.184 0.627 -0.309 c 0.183 -0.129 0.366 -0.303 0.545 -0.521 z" style="fill:#ececec;fill-opacity:1"/>
</svg>
